!!!COM: Bach, Johann Sebastian
!!!OPR: Joh. Seb. Bachs vierstimmige Choralgesänge
!!!XEN: Four-part Chorales
!!!OTL: 164. Von Gott will ich nicht lassen
!!!SCT: BWV 417
!!!SCA: Thematisch-systematisches Verzeichnis der musikalischen Werke Johann Sebastian Bach: Bach-Werke-Verzeichnis (Schmieder)
!!!YOR: Bach Gesellschaft Edition xxxix
!!!ENC: Steven Rasmussen
!!!CDT: 1685/3//-1750/7/28/
!!!OCY: Deutschland
!!!YEC: Copyright (c) 1994, 2000 Center for Computer Assisted Research in the Humanities
!!!YEM: Rights to all derivative editions reserved
!!!YEN: United States of America
**kern	**silbe	**kern	**silbe	**kern	**kern	**silbe
*I:[BASSO]	*I:[BASSO]	*I:[TENORE]	*I:[TENORE]	*I:[ALTO]	*I:[SOPRANO]	*I:[SOPRANO]
*>[A,A,B]	*	*>[A,A,B]	*	*>[A,A,B]	*>[A,A,B]	*
*>A	*	*>A	*	*>A	*>A	*
*clefF4	*	*clefGv2	*	*clefG2	*clefG2	*
*k[f#c#]	*	*k[f#c#]	*	*k[f#c#]	*k[f#c#]	*
*b:	*	*b:	*	*b:	*b:	*
*M4/4	*	*M4/4	*	*M4/4	*M4/4	*
8F#L	.	4A#	.	4c#	4f#	VonfÃ¼hrt
8EJ	.	.	.	.	.	.
=1	=1	=1	=1	=1	=1	=1
4D	.	4.B	.	4f#	4b	Gottmich
4C#	.	.	.	4e	4cc#	willauf
.	.	8A#	.	.	.	.
8BBL	.	4.B	.	8dL	4dd	ichrech-
8AAJ	.	.	.	8f#J	.	.
8GG#L	.	.	.	8bL	4ee	nicht-ter
8EJ	.	8B	.	8g#J	.	.
=2	=2	=2	=2	=2	=2	=2
8AAL	.	8BL	.	8g#L	4.cc#	las-Stra-
8BBJ	.	8A	.	8f#	.	.
4C#	.	8G#	.	16e#L	.	.
.	.	.	.	16d#J	.	.
.	.	8c#J	.	8e#J	8b	.
4FF#;	.	4c#;	.	4f#;	4a;	-sen,-ssen,
8F#L	.	4c#	.	4f#	4a	dennda
8EJ	.	.	.	.	.	.
=3	=3	=3	=3	=3	=3	=3
8DL	erich	8B	erich	4f#	4b	erich
8F#J	.	8A	lÃ¤sstsonst	.	.	.
4G	lÃ¤sstsonst	2G	nichtir-	8eL	4b	lÃ¤sstsonst
.	.	.	.	8dJ	.	.
4AA#	nichtir-	.	.	4e	8cc#L	nichtir-
.	.	.	.	.	8bJ	.
4AA#	von-ret	4F#	von-ret	8eL	4cc#	von-ret
.	.	.	.	16f#L	.	.
.	.	.	.	16eJJ	.	.
=4	=4	=4	=4	=4	=4	=4
2.BB;	.	2.F#;	.	2.d;	2.f#;	mir,sehr.
=:|!	=:|!	=:|!	=:|!	=:|!	=:|!	=:|!
*>B	*	*>B	*	*>B	*>B	*
8BBL	.	4d	.	4b	4ff#	Er
8AAJ	.	.	.	.	.	.
=5	=5	=5	=5	=5	=5	=5
8GGL	.	8eL	.	4b	4ee	reicht
8GJ	.	8f#J	.	.	.	.
8F#L	.	4g	.	4b	4dd	mir
8EJ	.	.	.	.	.	.
4A	.	8f#L	.	4a	4dd	sei-
.	.	16eL	.	.	.	.
.	.	16dJJ	.	.	.	.
4AA	.	8eL	.	4a	4cc#	-ne
.	.	16f#L	.	.	.	.
.	.	16gJJ	.	.	.	.
=6	=6	=6	=6	=6	=6	=6
2.D;	.	2.f#;	.	2.a;	2.dd;	Hand,
8AL	.	4e	.	4a	4cc#	den
8GJ	.	.	.	.	.	.
=7	=7	=7	=7	=7	=7	=7
8F#L	.	4f#	.	4a	4dd	A-
8EJ	.	.	.	.	.	.
8DL	.	4e	.	4a	4ee	-bend
8C#J	.	.	.	.	.	.
8DL	.	8dL	.	4.a	4ff#	wie
16EL	.	8AJ	.	.	.	.
16F#JJ	.	.	.	.	.	.
4BB	.	4d	.	.	4ff#	den
.	.	.	.	8g#	.	.
=8	=8	=8	=8	=8	=8	=8
8C#L	.	4c#	.	8aL	4.ee	Mor-
8DJ	.	.	.	8f#J	.	.
4E	.	16BLL	.	4g#	.	.
.	.	16AJ	.	.	.	.
.	.	8BJ	.	.	8dd	.
4AA;	.	4A;	.	4e;	4cc#;	-gen
4AA#	.	4c#	.	4f#	8cc#L	tut
.	.	.	.	.	16ddL	.
.	.	.	.	.	16eeJJ	.
=9	=9	=9	=9	=9	=9	=9
(8BB	.	8c#L	.	4f#	4dd	er
4B)	.	8BJ	.	.	.	.
.	.	8c#L	.	4f#	8.cc#L	mich
8A	.	8d#J	.	.	.	.
.	.	.	.	.	16bJk	.
8GL	.	8eL	.	8gL	4b	wohl
16AL	.	8d#J	.	8f#J	.	.
16BJJ	.	.	.	.	.	.
4E	.	8eL	.	4g	8bL	ver-
.	.	8BJ	.	.	16cc#L	.
.	.	.	.	.	16ddJJ	.
=10	=10	=10	=10	=10	=10	=10
8E#L	.	8G#L	.	8g#L	4.cc#	-sor-
16F#L	.	16AL	.	8f#J	.	.
16G#JJ	.	16BJJ	.	.	.	.
4C#	.	4c#	.	4e#	.	.
.	.	.	.	.	8b	.
4F#;	.	4c#;	.	4f#;	4a;	-gen,
8BBL	.	8dL	.	8f#L	4g	sei
8C#J	.	8AJ	.	8enJ	.	.
=11	=11	=11	=11	=11	=11	=11
8DL	.	4A	.	8dL	4f#	wo
8C#J	.	.	.	8eJ	.	.
8DL	.	8dL	.	8f#L	4b	ich
8EJ	.	8c#J	.	8gJ	.	.
8F#L	.	8dL	.	8f#L	8bL	woll'
8EJ	.	16eL	.	16gL	8cc#J	.
.	.	16dJ	.	16f#JJ	.	.
4F#	.	8c#J	.	8eL	4a#	im
.	.	8F#	.	16f#L	.	.
.	.	.	.	16eJJ	.	.
=12	=12	=12	=12	=12	=12	=12
2.BB;	.	2.F#;	.	2.d#;	2.b;	Land.
==|!	==|!	==|!	==|!	==|!	==|!	==|!
*-	*-	*-	*-	*-	*-	*-
!!!RWG: Key is interpreted using the Humdrum key tool.
!!!URL-pdf: https://s9.imslp.org/files/imglnks/usimg/6/6b/IMSLP24489-PMLP09471-CCARH_Bach_Chorales.pdf#page=114 Musedata edition
!!!URL-pdf: https://s9.imslp.org/files/imglnks/usimg/7/7a/IMSLP04155-Bach_-_BGA_253-438.pdf#page=90 	Bach-Gesellschaft Ausgabe, Band 39 (pp.175-276) Leipzig: Breitkopf und Härtel, 1892. Plate B.W. XXXIX.
!!!END: 1994/08/03
!!!EMD: Converted from MuseData to Humdrum Dec 19, 2000, by Andreas Kornstaedt using muse2kern.
!!!EED: Craig Stuart Sapp
!!!EEV: 2024/03/31
!!!filter-keyboard: satb2gs
